public/avatar/item2/4.svg

<svg xmlns:xlink="http://www.w3.org/1999/xlink" height="99.2" width="82.2" xmlns="http://www.w3.org/2000/svg"><use height="26.55" transform="translate(13.25 63)" width="34.5" xlink:href="#a"/><defs><g id="a"><path d="m14.75 16.25 2 1.75q-5.5 11.9-16.8 11.9-6.9 0-11.9-3.85-4.3-3.3-5.8-8.05l2.5-1.5q1.75 4.2 5.3 7 4.3 3.4 9.9 3.4 9.7 0 14.8-10.65" fill="#191900" fill-rule="evenodd" transform="translate(17.75 -16.25)"/><path d="M10.45 23.2q2.95-2.8 4.6-6.25l1.3 1.15q-3.7 5.25-4.95 6.4-4.85 4.6-11.45 4.6-6.3 0-11.1-3.5-3.9-2.9-5.95-7.35l1.7-1q1.05 3.9 5.1 6.95 4.5 3.4 10.25 3.4 5.85 0 10.5-4.4" fill="#fc0" fill-rule="evenodd" transform="translate(17.75 -16.25)"/><path d="M-14.35 19.2q-.15 1.45-1.55 1.75m3.6 1.1q.5.35 0 1.3-.55.9-1.05.55m3.95.6q.65 1.5-.8 2.05m4-.4q.55 1.7-.7 2.1m3.6-1.1q.5.15.3 1.2t-.7.9" fill="none" stroke="#191900" stroke-linecap="round" stroke-linejoin="round" transform="translate(17.75 -16.25)"/><path d="m-15.45 19.05.7.1q.2 1.35-1.15 1.35-.4-2.1-.55-2.3l1 .85m2.45 3.4.5-.2q.3.55-.9 1.5l-.65-2.1 1.05.8m2.65 2.5.7-.3q.35.45 0 1.05-.3.55-.8.55l-1.05-1.9 1.15.6m2.8 1.7.85-.15q.75 1.25-.5 1.5l-1.35-1.65 1 .3m2 .85 1.05.3 1.1-.5q.75.75-.3 1.6l-1.85-1.4" fill="#825e00" fill-rule="evenodd" transform="translate(17.75 -16.25)"/><path d="M-14.95 18.6q-.15-.4-1.65.6l-.4-.9q1.45-1.3 1.65-.8l.4 1.1m-.2 2.95q.9-1.55 1.15-1.2l.7.95q-.25-.25-1.3.95l-.55-.7m2.6 2.9q.75-1.45.95-1.3l.95.75-1.3 1-.6-.45m3.1 2.15q-.25-.15.7-1.3l1.25.55q-.45-.1-.95.4-.45.45-.25.8l-.75-.45" fill="#fff" fill-rule="evenodd" transform="translate(17.75 -16.25)"/><path d="M13.45 19.25q.15 1.6 1.2 1.8M11.4 22.1q-.55.35 0 1.3.5.9 1 .55m-3.95.55q-.7 1.45.75 2.05m-3.85-.3q-.6 1.65.65 2.05m-3.6-1.1q-.5.15-.35 1.2.2 1 .7.85" fill="none" stroke="#191900" stroke-linecap="round" stroke-linejoin="round" transform="translate(17.75 -16.25)"/><path d="m14.55 19.15 1.05-.85-.95 2.3q-.3.15-.65-.35-.4-.5-.1-1l.65-.1M12.1 22.5l1.05-.75-.85 1.75q-.3.5-.9-1.25l.7.25m-2.7 2.45 1.15-.6-1.1 1.9q-.5 0-.8-.55-.3-.6 0-1.05l.75.3m-2.85 1.7 1.05-.3-1.45 1.6q-1.2-.25-.45-1.5l.85.2m-1.9.9-1.9 1.35q-1.15-.85-.25-1.55l1.1.45 1.05-.25" fill="#825e00" fill-rule="evenodd" transform="translate(17.75 -16.25)"/><path d="m14.4 17.95.7-.95q1.3.75 1.2 1.05l-.5.9q.15-.45-1.4-1m-2.15 3.4.7-.7q1.3.45.9 1.05l-.5.65q.15-.35-.35-.7l-.75-.3m-2.55 2.5.7-.65q.35-.4.8.25.5.65.15 1.1l-.75.6q.15-.1-.9-1.3m-2.9 2.1.7-.35q1.2 1.1.7 1.3l-.7.35-.7-1.3M3.85 27l.75-.2.4 1.5-.75.2-.4-1.5" fill="#fff" fill-rule="evenodd" transform="translate(17.75 -16.25)"/><path d="M-.25 32.65H-.5v5.5h.25v-5.5m-3 1.5q-.65.8-.65 1.5 0 1.15.65 1.7v-3.2m5.5-6.4v2.15q1.6.5 3.6 2l-2.5 2.35-1.1-1.05v4l1.5-1.3L6 38.25q-1.15 1.4-3.75 2.45v2h-2.5v-1.4H-.5v1.5l-2.75-.05v-2Q-7.05 39.2-7 35.4q.05-3.3 3.75-4.95l.05-2.6h2.75L-.5 29.6h.25v-1.85h2.5" fill="#191900" fill-rule="evenodd" transform="translate(17.75 -16.25)"/><path d="M-2.3 32.2q-2.45 1.25-2.45 3.5 0 2.1 2.45 3.1v-6.6m2.8 7v-7.55l-.6-.05-1.15.15v7.35l1.15.15.6-.05m0-10.9h1.05v2.2q1.75.55 3.05 1.45l-1.4 1q-.45-.7-1.65-1.1v7L3.85 37l1.05 1.25q-1 1.15-3.35 2v1.8H.5V40.5l-.65.05-1.1-.1v1.65H-2.3v-1.9q-3.95-1.25-3.95-4.5 0-3.15 3.95-4.95v-2.4h1.05v2.05l1.15-.2.6.05V28.3" fill="#fc0" fill-rule="evenodd" transform="translate(17.75 -16.25)"/><path d="m-3.7 38.1 1.75.95-.7 1.05-2.05-1.3 1-.7" fill="#825e00" fill-rule="evenodd" transform="translate(17.75 -16.25)"/><path d="M-1.35 40.75V42h-.95l.1-1 .85-.25" fill="#fff" fill-rule="evenodd" transform="translate(17.75 -16.25)"/><path d="m1.45 34.35-.9 1.2.1-4.2.8-.8v3.8m-2.75 3.6-.9 1.45v-3.3l1-1.15-.1 3m-2.9-6Q-1.75 30 .5 30.3l-1.45 1.25q-1.8.5-2.55 1.25l-1.25 2-1.35 1.1.15-1.3q.45-1.55 1.75-2.65" fill="#825e00" fill-rule="evenodd" transform="translate(17.75 -16.25)"/><path d="m4.5 38.35-3 1.8-.15 1.25-.7.65v-1.7l-1.25.05 2.45-1 1.8-2.1.85 1.05m-3.05-7.8 1.85.75-.75.85-1.1-.5.05 1.5-.85.9-.1-2.5H.3l1.15-1M-1.3 35.9l-.9 1.25-.05-2.95.95-1.05v2.75m-3.5.4q.5 1.4 1.5 2l-.75.9q-1.35-.6-1.85-1.95l1.1-.95m.45-4.05q1.8-1.65 3.9-1.95-4.6 3.75-5.7 4.85l.3-.95q.55-1.1 1.5-1.95" fill="#fff" fill-rule="evenodd" transform="translate(17.75 -16.25)"/></g></defs></svg>

<?xml version="1.0" encoding="UTF-8" standalone="no"?>
<svg xmlns:xlink="http://www.w3.org/1999/xlink" height="99.2px" width="82.2px" xmlns="http://www.w3.org/2000/svg">
  <g transform="matrix(1.0, 0.0, 0.0, 1.0, 31.0, 46.75)">
    <use height="26.55" transform="matrix(1.0, 0.0, 0.0, 1.0, -17.75, 16.25)" width="34.5" xlink:href="#shape0"/>
  </g>
  <defs>
    <g id="shape0" transform="matrix(1.0, 0.0, 0.0, 1.0, 17.75, -16.25)">
      <path d="M14.75 16.25 L16.75 18.0 Q11.25 29.9 -0.05 29.9 -6.95 29.9 -11.95 26.05 -16.25 22.75 -17.75 18.0 L-15.25 16.5 Q-13.5 20.7 -9.95 23.5 -5.65 26.9 -0.05 26.9 9.65 26.9 14.75 16.25" fill="#191900" fill-rule="evenodd" stroke="none"/>
      <path d="M10.45 23.2 Q13.4 20.4 15.05 16.95 L16.35 18.1 Q12.65 23.35 11.4 24.5 6.55 29.1 -0.05 29.1 -6.35 29.1 -11.15 25.6 -15.05 22.7 -17.1 18.25 L-15.4 17.25 Q-14.35 21.15 -10.3 24.2 -5.8 27.6 -0.05 27.6 5.8 27.6 10.45 23.2" fill="#ffcc00" fill-rule="evenodd" stroke="none"/>
      <path d="M-14.35 19.2 Q-14.5 20.65 -15.9 20.95" fill="none" stroke="#191900" stroke-linecap="round" stroke-linejoin="round" stroke-width="1.0"/>
      <path d="M-12.3 22.05 Q-11.8 22.4 -12.3 23.35 -12.85 24.25 -13.35 23.9" fill="none" stroke="#191900" stroke-linecap="round" stroke-linejoin="round" stroke-width="1.0"/>
      <path d="M-9.4 24.5 Q-8.75 26.0 -10.2 26.55" fill="none" stroke="#191900" stroke-linecap="round" stroke-linejoin="round" stroke-width="1.0"/>
      <path d="M-6.2 26.15 Q-5.65 27.85 -6.9 28.25" fill="none" stroke="#191900" stroke-linecap="round" stroke-linejoin="round" stroke-width="1.0"/>
      <path d="M-3.3 27.15 Q-2.8 27.3 -3.0 28.35 -3.2 29.4 -3.7 29.25" fill="none" stroke="#191900" stroke-linecap="round" stroke-linejoin="round" stroke-width="1.0"/>
      <path d="M-15.45 19.05 L-14.75 19.15 Q-14.55 20.5 -15.9 20.5 -16.3 18.4 -16.45 18.2 L-15.45 19.05" fill="#825e00" fill-rule="evenodd" stroke="none"/>
      <path d="M-13.0 22.45 L-12.5 22.25 Q-12.2 22.8 -13.4 23.75 L-14.05 21.65 -13.0 22.45" fill="#825e00" fill-rule="evenodd" stroke="none"/>
      <path d="M-10.35 24.95 L-9.65 24.65 Q-9.3 25.1 -9.65 25.7 -9.95 26.25 -10.45 26.25 L-11.5 24.35 -10.35 24.95" fill="#825e00" fill-rule="evenodd" stroke="none"/>
      <path d="M-7.55 26.65 L-6.7 26.5 Q-5.95 27.75 -7.2 28.0 L-8.55 26.35 -7.55 26.65" fill="#825e00" fill-rule="evenodd" stroke="none"/>
      <path d="M-5.55 27.5 L-4.5 27.8 -3.4 27.3 Q-2.65 28.05 -3.7 28.9 L-5.55 27.5" fill="#825e00" fill-rule="evenodd" stroke="none"/>
      <path d="M-14.95 18.6 Q-15.1 18.2 -16.6 19.2 L-17.0 18.3 Q-15.55 17.0 -15.35 17.5 L-14.95 18.6" fill="#ffffff" fill-rule="evenodd" stroke="none"/>
      <path d="M-15.15 21.55 Q-14.25 20.0 -14.0 20.35 L-13.3 21.3 Q-13.55 21.05 -14.6 22.25 L-15.15 21.55" fill="#ffffff" fill-rule="evenodd" stroke="none"/>
      <path d="M-12.55 24.45 Q-11.8 23.0 -11.6 23.15 L-10.65 23.9 -11.95 24.9 -12.55 24.45" fill="#ffffff" fill-rule="evenodd" stroke="none"/>
      <path d="M-9.45 26.6 Q-9.7 26.45 -8.75 25.3 L-7.5 25.85 Q-7.95 25.75 -8.45 26.25 -8.9 26.7 -8.7 27.05 L-9.45 26.6" fill="#ffffff" fill-rule="evenodd" stroke="none"/>
      <path d="M13.45 19.25 Q13.6 20.85 14.65 21.05" fill="none" stroke="#191900" stroke-linecap="round" stroke-linejoin="round" stroke-width="1.0"/>
      <path d="M11.4 22.1 Q10.85 22.45 11.4 23.4 11.9 24.3 12.4 23.95" fill="none" stroke="#191900" stroke-linecap="round" stroke-linejoin="round" stroke-width="1.0"/>
      <path d="M8.45 24.5 Q7.75 25.95 9.2 26.55" fill="none" stroke="#191900" stroke-linecap="round" stroke-linejoin="round" stroke-width="1.0"/>
      <path d="M5.35 26.25 Q4.75 27.9 6.0 28.3" fill="none" stroke="#191900" stroke-linecap="round" stroke-linejoin="round" stroke-width="1.0"/>
      <path d="M2.4 27.2 Q1.9 27.35 2.05 28.4 2.25 29.4 2.75 29.25" fill="none" stroke="#191900" stroke-linecap="round" stroke-linejoin="round" stroke-width="1.0"/>
      <path d="M14.55 19.15 L15.6 18.3 14.65 20.6 Q14.35 20.75 14.0 20.25 13.6 19.75 13.9 19.25 L14.55 19.15" fill="#825e00" fill-rule="evenodd" stroke="none"/>
      <path d="M12.1 22.5 L13.15 21.75 12.3 23.5 Q12.0 24.0 11.4 22.25 L12.1 22.5" fill="#825e00" fill-rule="evenodd" stroke="none"/>
      <path d="M9.4 24.95 L10.55 24.35 9.45 26.25 Q8.95 26.25 8.65 25.7 8.35 25.1 8.65 24.65 L9.4 24.95" fill="#825e00" fill-rule="evenodd" stroke="none"/>
      <path d="M6.55 26.65 L7.6 26.35 6.15 27.95 Q4.95 27.7 5.7 26.45 L6.55 26.65" fill="#825e00" fill-rule="evenodd" stroke="none"/>
      <path d="M4.65 27.55 L2.75 28.9 Q1.6 28.05 2.5 27.35 L3.6 27.8 4.65 27.55" fill="#825e00" fill-rule="evenodd" stroke="none"/>
      <path d="M14.4 17.95 L15.1 17.0 Q16.4 17.75 16.3 18.05 L15.8 18.95 Q15.95 18.5 14.4 17.95" fill="#ffffff" fill-rule="evenodd" stroke="none"/>
      <path d="M12.25 21.35 L12.95 20.65 Q14.25 21.1 13.85 21.7 L13.35 22.35 Q13.5 22.0 13.0 21.65 L12.25 21.35" fill="#ffffff" fill-rule="evenodd" stroke="none"/>
      <path d="M9.7 23.85 L10.4 23.2 Q10.75 22.8 11.2 23.45 11.7 24.1 11.35 24.55 L10.6 25.15 Q10.75 25.05 9.7 23.85" fill="#ffffff" fill-rule="evenodd" stroke="none"/>
      <path d="M6.8 25.95 L7.5 25.6 Q8.7 26.7 8.2 26.9 L7.5 27.25 6.8 25.95" fill="#ffffff" fill-rule="evenodd" stroke="none"/>
      <path d="M3.85 27.0 L4.6 26.8 5.0 28.3 4.25 28.5 3.85 27.0" fill="#ffffff" fill-rule="evenodd" stroke="none"/>
      <path d="M-0.25 32.65 L-0.5 32.65 -0.5 38.15 -0.25 38.15 -0.25 32.65 M-3.25 34.15 Q-3.9 34.95 -3.9 35.65 -3.9 36.8 -3.25 37.35 L-3.25 34.15 M2.25 27.75 L2.25 29.9 Q3.85 30.4 5.85 31.9 L3.35 34.25 2.25 33.2 2.25 37.2 3.75 35.9 6.0 38.25 Q4.85 39.65 2.25 40.7 L2.25 42.7 -0.25 42.7 -0.25 41.3 -0.5 41.3 -0.5 42.8 -3.25 42.75 -3.25 40.75 Q-7.05 39.2 -7.0 35.4 -6.95 32.1 -3.25 30.45 L-3.2 27.85 -0.45 27.85 -0.5 29.6 -0.25 29.6 -0.25 27.75 2.25 27.75" fill="#191900" fill-rule="evenodd" stroke="none"/>
      <path d="M-2.3 32.2 Q-4.75 33.45 -4.75 35.7 -4.75 37.8 -2.3 38.8 L-2.3 32.2 M0.5 39.2 L0.5 31.65 -0.1 31.6 -1.25 31.75 -1.25 39.1 -0.1 39.25 0.5 39.2 M0.5 28.3 L1.55 28.3 1.55 30.5 Q3.3 31.05 4.6 31.95 L3.2 32.95 Q2.75 32.25 1.55 31.85 L1.55 38.85 3.85 37.0 4.9 38.25 Q3.9 39.4 1.55 40.25 L1.55 42.05 0.5 42.05 0.5 40.5 -0.15 40.55 -1.25 40.45 -1.25 42.1 -2.3 42.1 -2.3 40.2 Q-6.25 38.95 -6.25 35.7 -6.25 32.55 -2.3 30.75 L-2.3 28.35 -1.25 28.35 -1.25 30.4 -0.1 30.2 0.5 30.25 0.5 28.3" fill="#ffcc00" fill-rule="evenodd" stroke="none"/>
      <path d="M-3.7 38.1 L-1.95 39.05 -2.65 40.1 -4.7 38.8 -3.7 38.1" fill="#825e00" fill-rule="evenodd" stroke="none"/>
      <path d="M-1.35 40.75 L-1.35 42.0 -2.3 42.0 -2.2 41.0 -1.35 40.75" fill="#ffffff" fill-rule="evenodd" stroke="none"/>
      <path d="M1.45 34.35 L0.55 35.55 0.65 31.35 1.45 30.55 1.45 34.35" fill="#825e00" fill-rule="evenodd" stroke="none"/>
      <path d="M-1.3 37.95 L-2.2 39.4 -2.2 36.1 -1.2 34.95 -1.3 37.95" fill="#825e00" fill-rule="evenodd" stroke="none"/>
      <path d="M-4.2 31.95 Q-1.75 30.0 0.5 30.3 L-0.95 31.55 Q-2.75 32.05 -3.5 32.8 L-4.75 34.8 -6.1 35.9 -5.95 34.6 Q-5.5 33.05 -4.2 31.95" fill="#825e00" fill-rule="evenodd" stroke="none"/>
      <path d="M4.5 38.35 L1.5 40.15 1.35 41.4 0.65 42.05 0.65 40.35 -0.6 40.4 1.85 39.4 3.65 37.3 4.5 38.35" fill="#ffffff" fill-rule="evenodd" stroke="none"/>
      <path d="M1.45 30.55 L3.3 31.3 2.55 32.15 1.45 31.65 1.5 33.15 0.65 34.05 0.55 31.55 0.3 31.55 1.45 30.55" fill="#ffffff" fill-rule="evenodd" stroke="none"/>
      <path d="M-1.3 35.9 L-2.2 37.15 -2.25 34.2 -1.3 33.15 -1.3 35.9" fill="#ffffff" fill-rule="evenodd" stroke="none"/>
      <path d="M-4.8 36.3 Q-4.3 37.7 -3.3 38.3 L-4.05 39.2 Q-5.4 38.6 -5.9 37.25 L-4.8 36.3" fill="#ffffff" fill-rule="evenodd" stroke="none"/>
      <path d="M-4.35 32.25 Q-2.55 30.6 -0.45 30.3 -5.05 34.05 -6.15 35.15 L-5.85 34.2 Q-5.3 33.1 -4.35 32.25" fill="#ffffff" fill-rule="evenodd" stroke="none"/>
    </g>
  </defs>
</svg>
